src/images/icon/github.svg

<svg width="32" height="32" viewBox="0 0 32 32" fill="none" xmlns="http://www.w3.org/2000/svg">
<circle cx="16" cy="16" r="16" fill="#FEA5BB"/>
<path d="M16 6.58813C10.8305 6.58813 6.58823 10.8304 6.58823 15.9999C6.58823 20.4112 9.68365 24.4184 13.7941 25.4117V22.2979C13.3868 22.387 13.012 22.3896 12.5974 22.2674C12.0412 22.1033 11.5892 21.7328 11.2538 21.1678C11.0399 20.807 10.6609 20.4158 10.2656 20.4446L10.1686 19.3459C11.0236 19.2727 11.7632 19.8668 12.2022 20.6044C12.3972 20.9324 12.6217 21.1247 12.9098 21.2097C13.1882 21.2917 13.4872 21.2524 13.8356 21.1293C13.9231 20.4318 14.2426 20.1707 14.484 19.803V19.8025C12.0326 19.4368 11.0556 18.1363 10.6678 17.1097C10.154 15.7467 10.4297 14.0439 11.3383 12.9678C11.356 12.9468 11.3879 12.892 11.3755 12.8536C10.9589 11.5952 11.4666 10.5541 11.4853 10.4437C11.9661 10.5859 12.0442 10.3007 13.5738 11.23L13.8382 11.3888C13.9488 11.4547 13.914 11.4171 14.0246 11.4088C14.6633 11.2353 15.3365 11.1395 15.9999 11.1309C16.6682 11.1395 17.3372 11.2353 18.0022 11.4158L18.0878 11.4244C18.0804 11.4233 18.1111 11.419 18.1627 11.3882C20.0734 10.2309 20.0048 10.6091 20.5172 10.4425C20.5357 10.5531 21.0366 11.6111 20.6245 12.8536C20.5689 13.0248 22.281 14.5926 21.332 17.1093C20.9443 18.1363 19.9674 19.4368 17.516 19.8025V19.803C17.8302 20.282 18.2077 20.5367 18.2057 21.5248V25.4117C22.3163 24.4184 25.4116 20.4112 25.4116 15.9999C25.4118 10.8304 21.1695 6.58813 16 6.58813V6.58813Z" fill="white"/>
</svg>

<svg xmlns="http://www.w3.org/2000/svg" width="32" height="32" fill="none"><circle cx="16" cy="16" r="16" fill="#FEA5BB"/><path fill="#fff" d="M16 6.588c-5.17 0-9.412 4.242-9.412 9.412 0 4.411 3.096 8.418 7.206 9.412v-3.114c-.407.089-.782.092-1.197-.03-.556-.165-1.008-.535-1.343-1.1-.214-.361-.593-.752-.988-.723l-.097-1.1c.855-.072 1.594.522 2.033 1.26.195.327.42.52.708.605.278.082.577.042.926-.08.087-.698.407-.96.648-1.327-2.451-.366-3.428-1.667-3.816-2.693-.514-1.363-.238-3.066.67-4.142.018-.021.05-.076.038-.114-.417-1.259.09-2.3.11-2.41.48.142.558-.143 2.088.786l.264.159c.11.066.076.028.187.02A7.986 7.986 0 0 1 16 11.13a8.021 8.021 0 0 1 2.002.285l.086.008c-.008 0 .023-.005.075-.036 1.91-1.157 1.842-.779 2.354-.945.019.11.52 1.168.108 2.41-.056.172 1.656 1.74.707 4.256-.388 1.027-1.365 2.328-3.816 2.693v.001c.314.479.692.734.69 1.722v3.887c4.11-.994 7.206-5 7.206-9.412 0-5.17-4.242-9.412-9.412-9.412Z"/></svg>
